SF_Symbols/circle.grid.3x3.fill.svg

<?xml version="1.0" encoding="UTF-8"?>
<svg xmlns="http://www.w3.org/2000/svg" xmlns:xlink="http://www.w3.org/1999/xlink" width="24" height="24" viewBox="0 0 24 24" version="1.1">
<g id="surface1">
<path style=" stroke:none;fill-rule:nonzero;fill:rgb(100%,100%,100%);fill-opacity:1;" d="M 3.492188 7.96875 C 4.109375 7.96875 4.671875 7.816406 5.179688 7.511719 C 5.6875 7.207031 6.09375 6.800781 6.398438 6.292969 C 6.703125 5.785156 6.855469 5.226562 6.855469 4.617188 C 6.855469 4 6.703125 3.4375 6.398438 2.929688 C 6.09375 2.414062 5.6875 2.003906 5.179688 1.699219 C 4.671875 1.386719 4.109375 1.230469 3.492188 1.230469 C 2.875 1.230469 2.3125 1.386719 1.804688 1.699219 C 1.296875 2.003906 0.890625 2.414062 0.585938 2.929688 C 0.28125 3.4375 0.128906 4 0.128906 4.617188 C 0.128906 5.226562 0.28125 5.785156 0.585938 6.292969 C 0.890625 6.800781 1.296875 7.207031 1.804688 7.511719 C 2.3125 7.816406 2.875 7.96875 3.492188 7.96875 Z M 12 7.980469 C 12.617188 7.980469 13.179688 7.828125 13.6875 7.523438 C 14.195312 7.210938 14.601562 6.800781 14.90625 6.292969 C 15.21875 5.777344 15.375 5.214844 15.375 4.605469 C 15.375 3.980469 15.21875 3.414062 14.90625 2.90625 C 14.601562 2.390625 14.195312 1.984375 13.6875 1.6875 C 13.179688 1.382812 12.617188 1.230469 12 1.230469 C 11.382812 1.238281 10.816406 1.394531 10.300781 1.699219 C 9.792969 1.996094 9.382812 2.398438 9.070312 2.90625 C 8.765625 3.414062 8.613281 3.980469 8.613281 4.605469 C 8.613281 5.214844 8.765625 5.777344 9.070312 6.292969 C 9.382812 6.800781 9.792969 7.210938 10.300781 7.523438 C 10.816406 7.828125 11.382812 7.980469 12 7.980469 Z M 20.496094 7.980469 C 21.113281 7.980469 21.675781 7.828125 22.183594 7.523438 C 22.691406 7.210938 23.097656 6.800781 23.402344 6.292969 C 23.707031 5.777344 23.859375 5.214844 23.859375 4.605469 C 23.859375 3.980469 23.707031 3.414062 23.402344 2.90625 C 23.097656 2.390625 22.691406 1.984375 22.183594 1.6875 C 21.675781 1.382812 21.113281 1.230469 20.496094 1.230469 C 19.878906 1.238281 19.3125 1.394531 18.796875 1.699219 C 18.289062 1.996094 17.882812 2.398438 17.578125 2.90625 C 17.28125 3.414062 17.132812 3.980469 17.132812 4.605469 C 17.132812 5.214844 17.285156 5.777344 17.589844 6.292969 C 17.894531 6.800781 18.300781 7.210938 18.808594 7.523438 C 19.316406 7.828125 19.878906 7.980469 20.496094 7.980469 Z M 3.492188 15.925781 C 4.109375 15.925781 4.671875 15.773438 5.179688 15.46875 C 5.6875 15.164062 6.09375 14.757812 6.398438 14.25 C 6.703125 13.734375 6.855469 13.167969 6.855469 12.550781 C 6.855469 11.933594 6.703125 11.371094 6.398438 10.863281 C 6.09375 10.347656 5.6875 9.9375 5.179688 9.632812 C 4.671875 9.328125 4.109375 9.179688 3.492188 9.1875 C 2.875 9.1875 2.3125 9.339844 1.804688 9.644531 C 1.296875 9.949219 0.890625 10.355469 0.585938 10.863281 C 0.28125 11.371094 0.128906 11.933594 0.128906 12.550781 C 0.128906 13.167969 0.28125 13.734375 0.585938 14.25 C 0.890625 14.757812 1.296875 15.164062 1.804688 15.46875 C 2.3125 15.773438 2.875 15.925781 3.492188 15.925781 Z M 12 15.925781 C 12.617188 15.925781 13.179688 15.773438 13.6875 15.46875 C 14.195312 15.164062 14.601562 14.757812 14.90625 14.25 C 15.21875 13.734375 15.375 13.167969 15.375 12.550781 C 15.375 11.933594 15.21875 11.371094 14.90625 10.863281 C 14.601562 10.347656 14.195312 9.9375 13.6875 9.632812 C 13.179688 9.328125 12.617188 9.179688 12 9.1875 C 11.382812 9.1875 10.816406 9.339844 10.300781 9.644531 C 9.792969 9.949219 9.382812 10.355469 9.070312 10.863281 C 8.765625 11.371094 8.613281 11.933594 8.613281 12.550781 C 8.613281 13.167969 8.765625 13.734375 9.070312 14.25 C 9.382812 14.757812 9.792969 15.164062 10.300781 15.46875 C 10.816406 15.773438 11.382812 15.925781 12 15.925781 Z M 20.496094 15.925781 C 21.113281 15.925781 21.675781 15.773438 22.183594 15.46875 C 22.691406 15.164062 23.097656 14.757812 23.402344 14.25 C 23.707031 13.734375 23.859375 13.167969 23.859375 12.550781 C 23.859375 11.933594 23.707031 11.371094 23.402344 10.863281 C 23.097656 10.347656 22.691406 9.9375 22.183594 9.632812 C 21.675781 9.328125 21.113281 9.179688 20.496094 9.1875 C 19.878906 9.1875 19.316406 9.339844 18.808594 9.644531 C 18.300781 9.949219 17.894531 10.355469 17.589844 10.863281 C 17.285156 11.371094 17.132812 11.933594 17.132812 12.550781 C 17.132812 13.167969 17.285156 13.734375 17.589844 14.25 C 17.894531 14.757812 18.300781 15.164062 18.808594 15.46875 C 19.316406 15.773438 19.878906 15.925781 20.496094 15.925781 Z M 3.492188 23.871094 C 4.109375 23.871094 4.671875 23.71875 5.179688 23.414062 C 5.6875 23.109375 6.09375 22.703125 6.398438 22.195312 C 6.703125 21.6875 6.855469 21.121094 6.855469 20.496094 C 6.855469 19.878906 6.703125 19.316406 6.398438 18.808594 C 6.09375 18.300781 5.6875 17.894531 5.179688 17.589844 C 4.671875 17.285156 4.109375 17.132812 3.492188 17.132812 C 2.875 17.132812 2.3125 17.285156 1.804688 17.589844 C 1.296875 17.894531 0.890625 18.300781 0.585938 18.808594 C 0.28125 19.316406 0.128906 19.878906 0.128906 20.496094 C 0.128906 21.113281 0.28125 21.675781 0.585938 22.183594 C 0.890625 22.699219 1.296875 23.109375 1.804688 23.414062 C 2.3125 23.71875 2.875 23.871094 3.492188 23.871094 Z M 12 23.871094 C 12.617188 23.871094 13.179688 23.71875 13.6875 23.414062 C 14.195312 23.109375 14.601562 22.699219 14.90625 22.183594 C 15.21875 21.675781 15.375 21.113281 15.375 20.496094 C 15.375 19.878906 15.21875 19.316406 14.90625 18.808594 C 14.601562 18.300781 14.195312 17.894531 13.6875 17.589844 C 13.179688 17.285156 12.617188 17.132812 12 17.132812 C 11.382812 17.132812 10.816406 17.285156 10.300781 17.589844 C 9.792969 17.894531 9.382812 18.300781 9.070312 18.808594 C 8.765625 19.316406 8.613281 19.878906 8.613281 20.496094 C 8.613281 21.113281 8.765625 21.675781 9.070312 22.183594 C 9.382812 22.699219 9.792969 23.109375 10.300781 23.414062 C 10.816406 23.71875 11.382812 23.871094 12 23.871094 Z M 20.496094 23.871094 C 21.113281 23.871094 21.675781 23.71875 22.183594 23.414062 C 22.691406 23.109375 23.097656 22.699219 23.402344 22.183594 C 23.707031 21.675781 23.859375 21.113281 23.859375 20.496094 C 23.859375 19.878906 23.707031 19.316406 23.402344 18.808594 C 23.097656 18.300781 22.691406 17.894531 22.183594 17.589844 C 21.675781 17.285156 21.113281 17.132812 20.496094 17.132812 C 19.878906 17.132812 19.316406 17.285156 18.808594 17.589844 C 18.300781 17.894531 17.894531 18.300781 17.589844 18.808594 C 17.285156 19.316406 17.132812 19.878906 17.132812 20.496094 C 17.132812 21.113281 17.285156 21.675781 17.589844 22.183594 C 17.894531 22.699219 18.300781 23.109375 18.808594 23.414062 C 19.316406 23.71875 19.878906 23.871094 20.496094 23.871094 Z M 20.496094 23.871094 "/>
</g>
</svg>

<svg xmlns="http://www.w3.org/2000/svg" width="24" height="24"><path style="stroke:none;fill-rule:nonzero;fill:#fff;fill-opacity:1" d="M3.492 7.969c.617 0 1.18-.153 1.688-.457.508-.305.914-.711 1.218-1.219a3.2 3.2 0 0 0 .457-1.676c0-.617-.152-1.18-.457-1.687A3.47 3.47 0 0 0 5.18 1.7a3.145 3.145 0 0 0-1.688-.47c-.617 0-1.18.157-1.687.47a3.47 3.47 0 0 0-1.22 1.23A3.25 3.25 0 0 0 .13 4.617c0 .61.152 1.168.457 1.676.305.508.71.914 1.219 1.219.508.304 1.07.457 1.687.457ZM12 7.98c.617 0 1.18-.152 1.688-.457.5-.304.917-.726 1.218-1.23a3.216 3.216 0 0 0 .469-1.688c0-.625-.156-1.19-.469-1.699a3.375 3.375 0 0 0-1.219-1.219A3.214 3.214 0 0 0 12 1.23a3.38 3.38 0 0 0-1.7.47 3.5 3.5 0 0 0-1.23 1.206 3.245 3.245 0 0 0-.457 1.7c0 .609.153 1.171.457 1.687.313.508.723.918 1.23 1.23.512.305 1.102.461 1.7.457Zm8.496 0c.617 0 1.18-.152 1.688-.457.5-.304.918-.726 1.218-1.23a3.25 3.25 0 0 0 .457-1.688 3.245 3.245 0 0 0-.457-1.699 3.375 3.375 0 0 0-1.218-1.219 3.204 3.204 0 0 0-1.688-.457 3.38 3.38 0 0 0-1.7.47c-.507.296-.913.698-1.218 1.206a3.281 3.281 0 0 0-.445 1.7c0 .609.152 1.171.457 1.687.305.508.71.918 1.219 1.23.507.305 1.07.457 1.687.457ZM3.492 15.926c.617 0 1.18-.153 1.688-.457.508-.305.914-.711 1.218-1.219.305-.516.461-1.102.457-1.7 0-.616-.152-1.179-.457-1.687a3.47 3.47 0 0 0-1.218-1.23 3.124 3.124 0 0 0-1.688-.445c-.617 0-1.18.152-1.687.457-.508.304-.914.71-1.22 1.218a3.204 3.204 0 0 0-.456 1.688c0 .617.152 1.183.457 1.699.305.508.71.914 1.219 1.219.508.304 1.07.457 1.687.457Zm8.508 0c.617 0 1.18-.153 1.688-.457.507-.305.914-.711 1.218-1.219a3.22 3.22 0 0 0 .469-1.7c0-.616-.156-1.179-.469-1.687a3.47 3.47 0 0 0-1.219-1.23A3.158 3.158 0 0 0 12 9.188c-.617 0-1.184.152-1.7.457-.507.304-.917.71-1.23 1.218a3.204 3.204 0 0 0-.457 1.688c0 .617.153 1.183.457 1.699.313.508.723.914 1.23 1.219.512.304 1.102.46 1.7.457Zm8.496 0c.617 0 1.18-.153 1.688-.457.507-.305.914-.711 1.218-1.219.305-.516.461-1.102.457-1.7 0-.616-.152-1.179-.457-1.687a3.47 3.47 0 0 0-1.218-1.23 3.124 3.124 0 0 0-1.688-.445c-.617 0-1.18.152-1.687.457-.508.304-.914.71-1.22 1.218a3.204 3.204 0 0 0-.456 1.688c0 .617.152 1.183.457 1.699.305.508.71.914 1.219 1.219.507.304 1.07.457 1.687.457ZM3.492 23.87c.617 0 1.18-.152 1.688-.457.508-.305.914-.71 1.218-1.219a3.255 3.255 0 0 0 .457-1.699c0-.617-.152-1.18-.457-1.687a3.469 3.469 0 0 0-1.218-1.22 3.169 3.169 0 0 0-1.688-.456c-.617 0-1.18.152-1.687.457-.508.305-.914.71-1.22 1.219a3.204 3.204 0 0 0-.456 1.687c0 .617.152 1.18.457 1.688.305.515.71.925 1.219 1.23.508.305 1.07.457 1.687.457Zm8.508 0c.617 0 1.18-.152 1.688-.457.503-.3.921-.727 1.218-1.23.313-.508.469-1.07.469-1.688 0-.617-.156-1.18-.469-1.687a3.469 3.469 0 0 0-1.219-1.22A3.214 3.214 0 0 0 12 17.134c-.617 0-1.184.152-1.7.457-.507.305-.917.71-1.23 1.219a3.214 3.214 0 0 0-.457 1.687c0 .617.153 1.18.457 1.688.313.515.723.925 1.23 1.23a3.245 3.245 0 0 0 1.7.457Zm8.496 0c.617 0 1.18-.152 1.688-.457.503-.3.921-.727 1.218-1.23.305-.508.457-1.07.457-1.688 0-.617-.152-1.18-.457-1.687a3.469 3.469 0 0 0-1.218-1.22 3.169 3.169 0 0 0-1.688-.456c-.617 0-1.18.152-1.687.457-.508.305-.914.71-1.22 1.219a3.204 3.204 0 0 0-.456 1.687c0 .617.152 1.18.457 1.688.305.515.71.925 1.219 1.23.507.305 1.07.457 1.687.457Zm0 0"/></svg>
